public/svg/graduation-cap.svg

<svg height="116" viewBox="0 0 149 116" width="149" xmlns="http://www.w3.org/2000/svg" xmlns:xlink="http://www.w3.org/1999/xlink"><linearGradient id="a" x1="48.847079%" x2="50.565292%" y1="79.217376%" y2="20.833693%"><stop offset="0" stop-color="#5e71da"/><stop offset="1" stop-color="#53bceb"/></linearGradient><path d="m144.050401 30.9597026-59.3951891-29.17576215c-5.1202749-2.57433195-13.8247423-2.57433195-18.9450172 0l-60.76059562 29.17576215c-4.26689576 2.0594656-4.94959908 4.9770418-4.94959908 6.5216409 0 1.5445992.68270332 4.2905533 4.94959908 6.521641l4.94959909 2.4027098v27.4595408c-3.07216495 1.201355-5.29095075 4.2905533-5.29095075 7.7229959s2.2187858 6.521641 5.12027492 7.7229959l-7.68041237 24.5419641h21.50515463l-7.6804124-24.5419641c3.072165-1.2013549 5.1202749-4.2905533 5.1202749-7.7229959 0-3.6040647-2.2187857-6.5216409-5.2909507-7.7229959v-24.5419646l9.045819 4.4621754v35.6974031c0 .5148664.1706758 1.0297328.5120275 1.5445992.8533792 1.0297328 16.7262314 22.8257428 49.1546392 22.8257428 32.4284079 0 48.3012599-21.9676322 48.9839629-22.8257428.341352-.5148664.512028-1.0297328.512028-1.5445992v-35.525781l20.139748-9.9540835c4.266896-2.0594656 4.949599-4.9770418 4.949599-6.521641-.170676-1.5445991-.682703-4.4621753-4.949599-6.5216409zm-25.601375 57.6650357c-2.730813 3.4324427-17.408934 19.9081667-44.0343639 19.9081667-26.6254296 0-41.303551-16.475724-44.0343643-19.9081667v-32.4365826l35.3298969 16.9905909c2.5601375 1.2013549 5.9736541 1.8878435 9.3871707 1.8878435 3.5841924 0 6.9977091-.6864886 9.5578465-2.0594656l33.7938141-16.6473466zm23.211913-49.4271735-20.481099 10.1257057c-.85338 0-1.536083.3432443-1.877435 1.0297328l-37.0366547 18.0203237c-3.5841925 1.8878434-10.5819015 1.8878434-14.3367698 0l-45.5704467-21.9676327 52.3974799-6.1783967c1.5360825-.1716221 2.5601375-1.5445991 2.3894617-2.9175762-.1706759-1.5445992-1.5360825-2.5743319-2.9014891-2.4027098l-60.7605957 7.2081295-6.14432989-2.9175763c-1.53608247-.6864885-1.87743413-1.5445991-1.87743413-1.5445991 0-.1716222.34135166-.8581107 1.87743413-1.5445992l60.76059569-29.34738427c1.8774341-.85811065 4.4375715-1.37297704 6.997709-1.37297704 2.7308133 0 5.4616266.51486639 7.1683849 1.37297704l59.3951887 29.17576217c1.536083.6864885 1.877434 1.372977 1.877434 1.7162213 0 0-.512027.8581106-1.877434 1.5445991z" fill="url(#a)" transform="translate(0 1.146809)"/></svg>

<?xml version="1.0" encoding="UTF-8"?>
<svg width="149px" height="116px" viewBox="0 0 149 116" version="1.1" xmlns="http://www.w3.org/2000/svg" xmlns:xlink="http://www.w3.org/1999/xlink">
    <title>graduation-cap</title>
    <defs>
        <linearGradient x1="48.847079%" y1="79.2173759%" x2="50.5652921%" y2="20.8336933%" id="linearGradient-1">
            <stop stop-color="#5E71DA" offset="0%"></stop>
            <stop stop-color="#53BCEB" offset="100%"></stop>
        </linearGradient>
    </defs>
    <g id="Page-1" stroke="none" stroke-width="1" fill="none" fill-rule="evenodd">
        <g id="Home-desktop" transform="translate(-884.000000, -784.000000)" fill="url(#linearGradient-1)" fill-rule="nonzero">
            <g id="graduation-cap" transform="translate(884.000000, 785.146809)">
                <path d="M144.050401,30.9597026 L84.6552119,1.78394045 C79.534937,-0.790391499 70.8304696,-0.790391499 65.7101947,1.78394045 L4.94959908,30.9597026 C0.682703322,33.0191682 0,35.9367444 0,37.4813435 C0,39.0259427 0.682703322,41.7718968 4.94959908,44.0029845 L9.89919817,46.4056943 L9.89919817,73.8652351 C6.82703322,75.0665901 4.60824742,78.1557884 4.60824742,81.588231 C4.60824742,85.0206736 6.82703322,88.109872 9.72852234,89.3112269 L2.04810997,113.853191 L23.5532646,113.853191 L15.8728522,89.3112269 C18.9450172,88.109872 20.9931271,85.0206736 20.9931271,81.588231 C20.9931271,77.9841663 18.7743414,75.0665901 15.7021764,73.8652351 L15.7021764,49.3232705 L24.7479954,53.7854459 L24.7479954,89.482849 C24.7479954,89.9977154 24.9186712,90.5125818 25.2600229,91.0274482 C26.1134021,92.057181 41.9862543,113.853191 74.4146621,113.853191 C106.84307,113.853191 122.715922,91.8855588 123.398625,91.0274482 C123.739977,90.5125818 123.910653,89.9977154 123.910653,89.482849 L123.910653,53.957068 L144.050401,44.0029845 C148.317297,41.9435189 149,39.0259427 149,37.4813435 C148.829324,35.9367444 148.317297,33.0191682 144.050401,30.9597026 Z M118.449026,88.6247383 C115.718213,92.057181 101.040092,108.532905 74.4146621,108.532905 C47.7892325,108.532905 33.1111111,92.057181 30.3802978,88.6247383 L30.3802978,56.1881557 L65.7101947,73.1787466 C68.2703322,74.3801015 71.6838488,75.0665901 75.0973654,75.0665901 C78.6815578,75.0665901 82.0950745,74.3801015 84.6552119,73.0071245 L118.449026,56.3597779 L118.449026,88.6247383 Z M141.660939,39.1975648 L121.17984,49.3232705 C120.32646,49.3232705 119.643757,49.6665148 119.302405,50.3530033 L82.2657503,68.373327 C78.6815578,70.2611704 71.6838488,70.2611704 67.9289805,68.373327 L22.3585338,46.4056943 L74.7560137,40.2272976 C76.2920962,40.0556755 77.3161512,38.6826985 77.1454754,37.3097214 C76.9747995,35.7651222 75.6093929,34.7353895 74.2439863,34.9070116 L13.4833906,42.1151411 L7.33906071,39.1975648 C5.80297824,38.5110763 5.46162658,37.6529657 5.46162658,37.6529657 C5.46162658,37.4813435 5.80297824,36.794855 7.33906071,36.1083665 L68.0996564,6.76098223 C69.9770905,5.90287158 72.5372279,5.38800519 75.0973654,5.38800519 C77.8281787,5.38800519 80.558992,5.90287158 82.2657503,6.76098223 L141.660939,35.9367444 C143.197022,36.6232329 143.538373,37.3097214 143.538373,37.6529657 C143.538373,37.6529657 143.026346,38.5110763 141.660939,39.1975648 Z" id="Shape"></path>
            </g>
        </g>
    </g>
</svg>
